X:390
T: HOERT IHR LEUT UND LASST EUCH SAGEN
N: E1580A
O: Europa, Mitteleuropa, Deutschland
R: Staende - Lied, Nachtwaechter; geistlich, Choral
M: 4/4
L: 1/4
K: Eb
 | EEBB | AAGG |
eedd | ccBB |
BBeB | cBG2 |
BBAG | FFE2

@@@ Tune index: 5074
